X:1663
T:Bob And Joan. TLY.065
T:Bobbing Joan. TLY.065
M:3/2
L:1/8
Q:300
S:Wm.Tildesley,Swinton,Lancs.1860s.
R:Double H/Pipe
O:England.
A:Lancashire.
N:Time sig. is given in MS as 2/2 - is in fact 3/4 3rd. note 2nd. bar -
N:assumed a although ledger line missing. No title is given in the MS,
N:although a slightly different version appears earlier on as Bob And
N:Joan. TLY.005.
H:1860.
Z:vmp.Taz Tarry.
K:D
dfag f2| dfag fa|b>agf g2|e>feA ce:|!
:fdBc d2|fdBd ce|fdBc d>f|e>feA ce:|]


